src/main/resources/icons/AppcodeIcons/icons/Application_dark.svg

<svg xmlns="http://www.w3.org/2000/svg" width="16" height="16" viewBox="0 0 16 16">
  <g fill="none" fill-rule="evenodd">
    <path fill="#AFB1B3" d="M8.74161858 7.52786676L9.5576402 9.62502293 5.8308861 9.62502293 6.96934185 7.52786676 8.74161858 7.52786676zM11.9330564 7.52786676L15.0007588 7.52786676 15.0007588 9.62502293 12.749078 9.62502293 11.9330564 7.52786676zM3.61380466 7.52786676L2.47534891 9.62502293 1.00075884 9.62502293 1.00075884 7.52786676 3.61380466 7.52786676zM5.03267433 6.07081123L6.60523464 6.73523876 3.76523237 12.5198685 2.13904523 14.0230782 2.20164241 11.8371698 5.03267433 6.07081123zM5.39198818 5.33894647L5.78978867 4.5286906C6.09215885 3.91281097 6.59666257 3.80861366 7.03499613 4 7.44441003 4.17875935 7.6294557 4.64906453 7.38699479 5.14291857L6.96454849 6.003374 5.39198818 5.33894647z"/>
    <path fill="#AFB1B3" d="M11.3880648,12.5103332 L13.0395122,11.7316805 C13.2965889,12.3591663 13.56526,13.0149911 13.8455256,13.6991547 C12.9560258,14.2601276 11.8536428,13.6367432 11.3906082,12.5165152 C11.3897603,12.5144542 11.3889125,12.5123936 11.3880648,12.5103332 Z M10.9893899,11.5413294 C8.43556722,5.33420598 7.13212475,2.16814079 7.07906244,2.04313382 C6.99540252,1.8460434 7.30020119,1.3894763 7.71454438,1.20120266 C8.12786274,1.0133947 8.68693911,1.12802872 8.77059903,1.32511914 C8.86913299,1.55725059 10.1596782,4.7028835 12.6422346,10.7620179 L10.9893899,11.5413294 Z" transform="rotate(2 10.455 7.507)"/>
  </g>
</svg>

<svg xmlns="http://www.w3.org/2000/svg" width="16" height="16" viewBox="0 0 16 16"><rect id="frame" width="16" height="16" fill="none"/><g fill="#AFB1B3" fill-rule="evenodd"><path d="M8.742 7.528l.816 2.097H5.83l1.138-2.097h1.773zm3.191 0h3.068v2.097h-2.252l-.816-2.097zm-8.32 0L2.476 9.625H1.001V7.528h2.613zm1.42-1.457l1.572.664-2.84 5.785-1.626 1.503.063-2.186 2.83-5.766zm.359-.732l.398-.81c.302-.616.807-.72 1.245-.529.41.179.594.65.352 1.143l-.422.86-1.573-.664z"/><path d="M11.213 12.54l1.677-.72c.236.635.481 1.3.737 1.994-.908.53-1.988-.132-2.412-1.268l-.002-.006zm-.365-.982a9156.454 9156.454 0 0 0-3.576-9.63c-.077-.2.244-.645.664-.819.42-.173.975-.039 1.051.161.09.236 1.27 3.424 3.54 9.566l-1.679.722z"/></g></svg>
